Yaru++/apps/scalable/cantata.svg

<svg enable-background="new" height="256" viewBox="0 0 256 256" width="256" xmlns="http://www.w3.org/2000/svg" xmlns:xlink="http://www.w3.org/1999/xlink">
  <filter id="filter11191" color-interpolation-filters="sRGB" height="1.024" width="1.024" x="-.01" y="-.01">
    <feGaussianBlur stdDeviation="1.12"/>
  </filter>
  <filter id="filter11210" color-interpolation-filters="sRGB" height="1.096" width="1.096" x="-.05" y="-.05">
    <feGaussianBlur stdDeviation="4.48"/>
  </filter>
  <linearGradient id="linearGradient873" gradientUnits="userSpaceOnUse" x1="-169.89485256" x2="-87.609138" y1="-219.24800416" y2="-27.24800352">
    <stop offset="0" stop-color="#faf8f6"/>
    <stop offset="1" stop-color="#f1f0e9"/>
  </linearGradient>
  <circle cx="128.752" cy="127.248" filter="url(#filter11210)" opacity=".1" r="112"/>
  <circle cx="128.752" cy="125.248" filter="url(#filter11191)" opacity=".1" r="112"/>
  <circle cx="128.752" cy="123.248" opacity=".1" r="114"/>
  <circle cx="-128.752" cy="-123.248" fill="#595959" r="112" transform="scale(-1)"/>
  <path d="m16.751953 123.24219a112 112 0 0 0 0 .00586 112 112 0 0 0 .28125 7.92187 112 112 0 0 0 1.347656 11.11524 112 112 0 0 0 2.453125 10.92187 112 112 0 0 0 3.529297 10.625 112 112 0 0 0 4.574219 10.21875 112 112 0 0 0 5.570312 9.71094 112 112 0 0 0 6.511719 9.10742 112 112 0 0 0 7.388672 8.41016 112 112 0 0 0 8.191406 7.63086 112 112 0 0 0 8.91211 6.77539 112 112 0 0 0 9.544922 5.85156 112 112 0 0 0 10.080078 4.86914 112 112 0 0 0 10.517578 3.83984 112 112 0 0 0 10.847653 2.76953 112 112 0 0 0 11.06836 1.67188 112 112 0 0 0 11.18164.56055 112 112 0 0 0 7.92188-.28125 112 112 0 0 0 11.11523-1.34766 112 112 0 0 0 10.92188-2.45312 112 112 0 0 0 10.625-3.5293 112 112 0 0 0 10.21875-4.57422 112 112 0 0 0 9.71093-5.57031 112 112 0 0 0 9.10743-6.51172 112 112 0 0 0 8.41015-7.38867 112 112 0 0 0 7.63086-8.19141 112 112 0 0 0 6.77539-8.91211 112 112 0 0 0 5.85157-9.54492 112 112 0 0 0 4.86914-10.08008 112 112 0 0 0 3.83984-10.51758 112 112 0 0 0 2.76953-10.84765 112 112 0 0 0 1.67383-11.06836 112 112 0 0 0 .55859-11.18164 112 112 0 0 0 0-.00586z" fill="#fff" opacity=".1"/>
  <path d="m128.752 11.248007a112 112 0 0 0 -112 111.999993 112 112 0 0 0 .04102 1.16992 112 112 0 0 1 111.95898-111.169913 112 112 0 0 1 111.95898 110.830073 112 112 0 0 0 .041-.83008 112 112 0 0 0 -112-111.999993z" fill="#fff" opacity=".3"/>
  <path d="m128.752 235.248a112 112 0 0 1 -112-112 112 112 0 0 1 .04102-1.16992 112 112 0 0 0 111.95898 111.16992 112 112 0 0 0 111.95898-110.83008 112 112 0 0 1 .041.83008 112 112 0 0 1 -112 112z" opacity=".2"/>
  <circle cx="-128.752" cy="-123.248" fill="url(#linearGradient873)" r="96" transform="scale(-1)"/>
  <path d="m100.02285 187.90413c-22.536244-2.46206-36.85538-15.88224-32.843424-30.7816 2.20402-8.18506 14.156697-16.98822 27.761917-20.4466 7.050987-1.79234 17.563427-1.75958 24.888947.0774 3.20017.80256 5.92202 1.31553 6.04853 1.13988.12641-.1756 1.17407-13.04076 2.32789-28.58918 1.15382-15.548489 2.40974-32.472568 2.7909-37.609148.45642-6.15088 1.20692-10.1235 2.19828-11.636519 1.47468-2.25066 1.56485-2.26684 4.44186-.79638 4.4506 2.2747 34.25098 22.581119 40.35387 27.497719 9.64874 7.773179 13.86967 16.295508 12.85918 25.963378-1.70668 16.32875-20.13663 29.59683-28.91616 20.81727-3.66841-3.66838-3.4505-6.54628.85265-11.26166 4.52382-4.95724 5.60101-7.09217 5.60101-11.10081 0-5.16334-3.52147-11.336975-10.8303-18.987059-3.72277-3.896619-6.86545-6.974979-6.98375-6.840899-.11841.1342-.89625 13.375683-1.72882 29.425668-2.62161 50.53742-3.12757 53.57044-10.26582 61.53796-3.78137 4.22062-11.87498 9.1763-17.15583 10.50438-5.34893 1.34528-14.68916 1.81922-21.40093 1.08596z" fill="#234db8"/>
  <path d="m128.75195 27.248047a96 96 0 0 0 -95.999997 96.000003 96 96 0 0 0 .041016 1.17187 96 96 0 0 1 95.958981-95.171873 96 96 0 0 1 95.95899 94.828123 96 96 0 0 0 .04101-.82812 96 96 0 0 0 -96-96.000003z" fill="#fff" opacity=".3"/>
  <path d="m224.71094 122.07617a96 96 0 0 1 -95.95899 95.17188 96 96 0 0 1 -95.958981-94.82813 96 96 0 0 0 -.041016.82813 96 96 0 0 0 95.999997 96 96 96 0 0 0 96-96 96 96 0 0 0 -.04101-1.17188z" opacity=".2"/>
  <path d="m134.89062 58.265625c-.5665.10157-.95797.667639-1.69531 1.792969-.99136 1.513019-1.74084 5.485838-2.19726 11.636718-.38116 5.136581-1.6372 22.060886-2.79102 37.609378-1.15382 15.54842-2.20171 28.41229-2.32812 28.58789-.12651.17565-2.84866-.33611-6.04883-1.13867-7.32552-1.83698-17.83769-1.87047-24.888674-.07813-13.60522 3.45838-25.557699 12.26221-27.761718 20.44727-.54201 2.01288-.738916 3.99612-.636719 5.93164.07394-1.29501.279914-2.60657.636719-3.93164 2.204019-8.18506 14.156498-16.98889 27.761718-20.44727 7.050984-1.79234 17.563154-1.75885 24.888674.07813 3.20017.80256 5.92232 1.31432 6.04883 1.13867.12641-.1756 1.1743-13.03947 2.32812-28.58789 1.15382-15.548492 2.40986-32.472797 2.79102-37.609378.45642-6.15088 1.2059-10.123699 2.19726-11.636718 1.47468-2.25066 1.56635-2.267335 4.44336-.796875 4.4506 2.2747 34.25063 22.581447 40.35352 27.498047 8.38809 6.757582 12.66956 14.082044 12.98242 22.232424.35779-8.95845-3.91383-16.926624-12.98242-24.232424-6.10289-4.9166-35.90292-25.223347-40.35352-27.498047-1.4385-.73523-2.18154-1.097664-2.74805-.996094zm33.45704 53.955075c-.19726 3.36563-1.45096 5.55528-5.56055 10.0586-2.70411 2.96315-3.79328 5.1992-3.32031 7.36328.33289-1.5824 1.43373-3.29598 3.32031-5.36328 4.52382-4.95724 5.60156-7.09293 5.60156-11.10157 0-.315-.01474-.63439-.04101-.95703z" fill="#fff" opacity=".3"/>
  <path d="m150.57422 83.349609c-.11841.1342-.89595 13.375797-1.72852 29.425781-2.62161 50.53742-3.12737 53.57154-10.26562 61.53906-3.78137 4.22062-11.8754 9.17583-17.15625 10.50391-5.34893 1.34528-14.68862 1.8192-21.40039 1.08594-19.49163-2.12944-32.826209-12.45845-33.480471-24.84961-.757453 13.26627 12.94849 24.60651 33.480471 26.84961 6.71177.73326 16.05146.25934 21.40039-1.08594 5.28085-1.32808 13.37488-6.28329 17.15625-10.50391 7.13825-7.96752 7.64401-11.00164 10.26562-61.53906.83257-16.049984 1.61011-29.291581 1.72852-29.425781.1183-.13408 3.2616 2.945178 6.98437 6.841797 6.86293 7.183363 10.38467 13.063584 10.78907 18.029294.01988-.33924.04101-.67591.04101-1.04297 0-5.16334-3.52125-11.33624-10.83008-18.986324-3.72277-3.896619-6.86607-6.975877-6.98437-6.841797zm40.40039 25.642581c-.02289.5731-.06229 1.14917-.12305 1.73047-1.70668 16.32875-20.13648 29.59792-28.91601 20.81836-1.36317-1.36316-2.18907-2.61874-2.46875-3.89844-.42641 2.02693.40863 3.83834 2.46875 5.89844 8.77953 8.77956 27.20933-4.48961 28.91601-20.81836.13203-1.26315.17007-2.50555.12305-3.73047z" fill="#040c15" opacity=".2"/>
</svg>

<svg xmlns="http://www.w3.org/2000/svg" xmlns:xlink="http://www.w3.org/1999/xlink" style="enable-background:new" width="256" height="256" version="1.0" viewBox="0 0 256 256">
 <title id="title4162">
  Adwaita Icon Template
 </title>
 <defs>
  <linearGradient id="linearGradient950">
   <stop style="stop-color:#9a9996" id="stop946" offset="0"/>
   <stop style="stop-color:#77767b" id="stop948" offset="1"/>
  </linearGradient>
  <linearGradient id="linearGradient1001" x1="1660.857" x2="1662.99" y1="806.297" y2="812.882" gradientTransform="matrix(1.8293937,-0.81599442,0.81599442,1.8293937,-3645.9624,100.02949)" gradientUnits="userSpaceOnUse" xlink:href="#linearGradient950"/>
  <clipPath id="clipPath5154" clipPathUnits="userSpaceOnUse">
   <circle style="fill:url(#radialGradient5158)" cx="128" cy="924.362" r="109.647"/>
  </clipPath>
  <clipPath id="clipPath977" clipPathUnits="userSpaceOnUse">
   <circle style="fill:url(#radialGradient5158)" cx="128" cy="924.362" r="109.647"/>
  </clipPath>
  <clipPath id="clipPath4688" clipPathUnits="userSpaceOnUse">
   <path style="fill:url(#radialGradient4692);stroke:#a7003f;stroke-linecap:round;stroke-linejoin:round" d="m 106.42383,889.60156 c -2.2448,-0.0524 -4.09304,1.75264 -4.09375,3.99805 v 32.64453 32.64453 c -4e-5,3.07923 3.33305,5.004 6,3.46485 l 28.26953,-16.32227 28.27148,-16.32227 c 2.66559,-1.54001 2.66559,-5.38772 0,-6.92773 l -28.27148,-16.32227 -28.26953,-16.32226 c -0.58054,-0.3353 -1.23603,-0.51932 -1.90625,-0.53516 z"/>
  </clipPath>
  <clipPath id="clipPath4564" clipPathUnits="userSpaceOnUse">
   <circle style="fill:url(#radialGradient4568)" cx="128" cy="924.362" r="109.647"/>
  </clipPath>
  <clipPath id="clipPath6215" clipPathUnits="userSpaceOnUse">
   <path style="fill:url(#radialGradient6219)" d="m 105.17325,806.18572 c -3.06859,0.56361 -6.11393,1.24721 -9.129005,2.04923 -3.838255,1.06506 -7.62084,2.32142 -11.333578,3.76438 -3.712189,1.44307 -7.34989,3.07087 -10.899472,4.87732 -3.549153,1.80656 -7.005749,3.78947 -10.35684,5.94129 -3.351877,2.15253 -6.593991,4.47137 -9.714191,6.94783 -3.119992,2.47544 -6.114241,5.10535 -8.971529,7.87988 -0.367219,0.38909 -0.731819,0.78065 -1.093777,1.17464 2.60205,17.85956 16.832359,40.03752 30.863064,55.74236 -4.76734,8.84435 -7.265993,18.73329 -7.272057,28.78068 0.02104,2.87431 0.246096,5.7435 0.673482,8.58593 -20.257302,-9.18513 -43.077023,-26.53494 -52.798465,-47.36396 -0.440667,1.15171 -0.863474,2.31018 -1.268271,3.47498 -1.176789,3.80495 -2.162562,7.66637 -2.953625,11.56979 -0.79154,3.90311 -1.3874065,7.84335 -1.7853678,11.80598 -0.39733,3.96334 -0.5961891,7.94407 -0.5958321,11.92728 -4.394e-4,2.81936 0.098928,5.63785 0.2979155,8.45018 0.282275,3.97319 0.763088,7.92978 1.4406374,11.85493 0.625626,3.51826 1.408798,7.00668 2.347153,10.45473 16.778133,6.68355 43.114514,5.45001 63.748015,1.14301 6.818545,11.02763 16.987182,19.58379 29.018153,24.41667 -18.071844,12.93645 -44.490188,24.02095 -67.37308,22.03245 1.384097,1.665 2.813203,3.2921 4.285735,4.8794 2.774977,2.8571 5.691103,5.5737 8.737453,8.1395 3.046107,2.5658 6.218619,4.9777 9.505651,7.2266 3.287242,2.2488 6.684891,4.3319 10.180217,6.2413 3.495379,1.9096 7.084075,3.6433 10.752641,5.1944 3.66896,1.5509 7.413193,2.9174 11.218668,4.0942 1.438565,0.3959 2.884421,0.7648 4.336807,1.1066 14.138748,-11.1844 26.206378,-34.5828 32.780368,-54.56406 12.95816,-0.38251 25.45395,-4.90132 35.65955,-12.89544 2.15922,22.12638 -1.46693,50.5581 -14.64692,69.3832 3.06859,-0.5636 6.11393,-1.2473 9.129,-2.0493 3.83826,-1.0651 7.62084,-2.3214 11.33358,-3.7644 3.71219,-1.4431 7.34989,-3.0709 10.89947,-4.8773 3.54915,-1.8066 7.00575,-3.7895 10.35684,-5.9413 3.35188,-2.1525 6.59399,-4.4714 9.71419,-6.9478 3.11999,-2.4754 6.11424,-5.1054 8.97153,-7.8799 0.36722,-0.3891 0.73182,-0.7806 1.09378,-1.1746 -2.60204,-17.85957 -16.83236,-40.03755 -30.86307,-55.74238 4.76735,-8.84435 7.266,-18.7333 7.27207,-28.78069 -0.021,-2.8743 -0.24611,-5.74349 -0.6735,-8.58592 20.25731,9.18513 43.07704,26.53494 52.79848,47.36396 0.44067,-1.15171 0.86347,-2.31018 1.26827,-3.47499 1.17679,-3.80495 2.16256,-7.66636 2.95362,-11.56978 0.79154,-3.90311 1.38741,-7.84335 1.78537,-11.80598 0.39733,-3.96334 0.59619,-7.94408 0.59583,-11.92729 4.4e-4,-2.81936 -0.0989,-5.63784 -0.29791,-8.45017 -0.28228,-3.97319 -0.76309,-7.92978 -1.44064,-11.85493 -0.62776,-3.53416 -1.41449,-7.03823 -2.35779,-10.50154 -20.56165,-7.32804 -45.89823,-4.79548 -63.74906,-1.11372 -6.81835,-11.01918 -16.98234,-19.56874 -29.00647,-24.39915 18.07184,-12.93645 44.49019,-24.02091 67.37307,-22.03241 -1.38409,-1.66502 -2.8132,-3.2921 -4.28573,-4.87944 -2.77498,-2.85712 -5.6911,-5.57368 -8.73745,-8.13949 -3.04611,-2.56581 -6.21862,-4.97769 -9.50565,-7.22659 -3.28724,-2.24885 -6.68489,-4.3319 -10.18022,-6.24135 -3.49538,-1.90963 -7.08407,-3.64325 -10.75264,-5.19438 -3.66896,-1.55092 -7.41319,-2.91736 -11.21867,-4.09421 -1.42662,-0.39262 -2.86041,-0.75869 -4.30063,-1.09804 -14.14688,11.18369 -26.2293,34.57475 -32.8107,54.55552 -12.96018,0.38127 -25.4582,4.90015 -35.665394,12.89544 -2.15922,-22.12637 1.466931,-50.55807 14.646924,-69.38315 z"/>
  </clipPath>
  <linearGradient id="linearGradient954">
   <stop id="stop950" offset="0" style="stop-color:#faf8f6"/>
   <stop id="stop952" offset="1" style="stop-color:#f1f0e9"/>
  </linearGradient>
  <filter style="color-interpolation-filters:sRGB" id="filter11191" width="1.024" height="1.024" x="-.01" y="-.01">
   <feGaussianBlur id="feGaussianBlur11193" stdDeviation="1.12"/>
  </filter>
  <filter style="color-interpolation-filters:sRGB" id="filter11210" width="1.096" height="1.096" x="-.05" y="-.05">
   <feGaussianBlur id="feGaussianBlur11212" stdDeviation="4.48"/>
  </filter>
  <linearGradient id="linearGradient873" x1="104" x2="200" y1="44" y2="268" gradientTransform="matrix(0.85714286,0,0,0.85714286,-259.03771,-256.96229)" gradientUnits="userSpaceOnUse" xlink:href="#linearGradient954"/>
 </defs>
 <circle style="opacity:0.1;filter:url(#filter11210)" cx="128.752" cy="127.248" r="112"/>
 <circle style="opacity:0.1;filter:url(#filter11191)" cx="128.752" cy="125.248" r="112"/>
 <circle style="opacity:0.1" cx="128.752" cy="123.248" r="114"/>
 <circle style="fill:#595959" cx="-128.752" cy="-123.248" r="112" transform="scale(-1)"/>
 <path style="opacity:0.1;fill:#ffffff" d="M 16.751953 123.24219 A 112 112 0 0 0 16.751953 123.24805 A 112 112 0 0 0 17.033203 131.16992 A 112 112 0 0 0 18.380859 142.28516 A 112 112 0 0 0 20.833984 153.20703 A 112 112 0 0 0 24.363281 163.83203 A 112 112 0 0 0 28.9375 174.05078 A 112 112 0 0 0 34.507812 183.76172 A 112 112 0 0 0 41.019531 192.86914 A 112 112 0 0 0 48.408203 201.2793 A 112 112 0 0 0 56.599609 208.91016 A 112 112 0 0 0 65.511719 215.68555 A 112 112 0 0 0 75.056641 221.53711 A 112 112 0 0 0 85.136719 226.40625 A 112 112 0 0 0 95.654297 230.24609 A 112 112 0 0 0 106.50195 233.01562 A 112 112 0 0 0 117.57031 234.6875 A 112 112 0 0 0 128.75195 235.24805 A 112 112 0 0 0 136.67383 234.9668 A 112 112 0 0 0 147.78906 233.61914 A 112 112 0 0 0 158.71094 231.16602 A 112 112 0 0 0 169.33594 227.63672 A 112 112 0 0 0 179.55469 223.0625 A 112 112 0 0 0 189.26562 217.49219 A 112 112 0 0 0 198.37305 210.98047 A 112 112 0 0 0 206.7832 203.5918 A 112 112 0 0 0 214.41406 195.40039 A 112 112 0 0 0 221.18945 186.48828 A 112 112 0 0 0 227.04102 176.94336 A 112 112 0 0 0 231.91016 166.86328 A 112 112 0 0 0 235.75 156.3457 A 112 112 0 0 0 238.51953 145.49805 A 112 112 0 0 0 240.19336 134.42969 A 112 112 0 0 0 240.75195 123.24805 A 112 112 0 0 0 240.75195 123.24219 L 16.751953 123.24219 z"/>
 <path style="opacity:0.3;fill:#ffffff" d="M 128.752,11.248007 A 112,112 0 0 0 16.752,123.248 112,112 0 0 0 16.79302,124.41792 112,112 0 0 1 128.752,13.248007 112,112 0 0 1 240.71098,124.07808 a 112,112 0 0 0 0.041,-0.83008 112,112 0 0 0 -112,-111.999993 z"/>
 <path style="opacity:0.2" d="m 128.752,235.248 a 112,112 0 0 1 -112,-112 112,112 0 0 1 0.04102,-1.16992 A 112,112 0 0 0 128.752,233.248 112,112 0 0 0 240.71098,122.41792 a 112,112 0 0 1 0.041,0.83008 112,112 0 0 1 -112,112 z"/>
 <circle cx="-128.752" cy="-123.248" r="96" transform="scale(-1)" style="fill:url(#linearGradient873)"/>
 <path style="fill:#234db8" d="m 100.02285,187.90413 c -22.536244,-2.46206 -36.85538,-15.88224 -32.843424,-30.7816 2.20402,-8.18506 14.156697,-16.98822 27.761917,-20.4466 7.050987,-1.79234 17.563427,-1.75958 24.888947,0.0774 3.20017,0.80256 5.92202,1.31553 6.04853,1.13988 0.12641,-0.1756 1.17407,-13.04076 2.32789,-28.58918 1.15382,-15.548489 2.40974,-32.472568 2.7909,-37.609148 0.45642,-6.15088 1.20692,-10.1235 2.19828,-11.636519 1.47468,-2.25066 1.56485,-2.26684 4.44186,-0.79638 4.4506,2.2747 34.25098,22.581119 40.35387,27.497719 9.64874,7.773179 13.86967,16.295508 12.85918,25.963378 -1.70668,16.32875 -20.13663,29.59683 -28.91616,20.81727 -3.66841,-3.66838 -3.4505,-6.54628 0.85265,-11.26166 4.52382,-4.95724 5.60101,-7.09217 5.60101,-11.10081 0,-5.16334 -3.52147,-11.336975 -10.8303,-18.987059 -3.72277,-3.896619 -6.86545,-6.974979 -6.98375,-6.840899 -0.11841,0.1342 -0.89625,13.375683 -1.72882,29.425668 -2.62161,50.53742 -3.12757,53.57044 -10.26582,61.53796 -3.78137,4.22062 -11.87498,9.1763 -17.15583,10.50438 -5.34893,1.34528 -14.68916,1.81922 -21.40093,1.08596 z"/>
 <path style="opacity:0.3;fill:#ffffff" d="M 128.75195 27.248047 A 96 96 0 0 0 32.751953 123.24805 A 96 96 0 0 0 32.792969 124.41992 A 96 96 0 0 1 128.75195 29.248047 A 96 96 0 0 1 224.71094 124.07617 A 96 96 0 0 0 224.75195 123.24805 A 96 96 0 0 0 128.75195 27.248047 z"/>
 <path style="opacity:0.2" d="M 224.71094 122.07617 A 96 96 0 0 1 128.75195 217.24805 A 96 96 0 0 1 32.792969 122.41992 A 96 96 0 0 0 32.751953 123.24805 A 96 96 0 0 0 128.75195 219.24805 A 96 96 0 0 0 224.75195 123.24805 A 96 96 0 0 0 224.71094 122.07617 z"/>
 <path style="fill:#ffffff;opacity:0.3" d="M 134.89062 58.265625 C 134.32412 58.367195 133.93265 58.933264 133.19531 60.058594 C 132.20395 61.571613 131.45447 65.544432 130.99805 71.695312 C 130.61689 76.831893 129.36085 93.756198 128.20703 109.30469 C 127.05321 124.85311 126.00532 137.71698 125.87891 137.89258 C 125.7524 138.06823 123.03025 137.55647 119.83008 136.75391 C 112.50456 134.91693 101.99239 134.88344 94.941406 136.67578 C 81.336186 140.13416 69.383707 148.93799 67.179688 157.12305 C 66.637678 159.13593 66.440772 161.11917 66.542969 163.05469 C 66.616909 161.75968 66.822883 160.44812 67.179688 159.12305 C 69.383707 150.93799 81.336186 142.13416 94.941406 138.67578 C 101.99239 136.88344 112.50456 136.91693 119.83008 138.75391 C 123.03025 139.55647 125.7524 140.06823 125.87891 139.89258 C 126.00532 139.71698 127.05321 126.85311 128.20703 111.30469 C 129.36085 95.756198 130.61689 78.831893 130.99805 73.695312 C 131.45447 67.544432 132.20395 63.571613 133.19531 62.058594 C 134.66999 59.807934 134.76166 59.791259 137.63867 61.261719 C 142.08927 63.536419 171.8893 83.843166 177.99219 88.759766 C 186.38028 95.517348 190.66175 102.84181 190.97461 110.99219 C 191.3324 102.03374 187.06078 94.065566 177.99219 86.759766 C 171.8893 81.843166 142.08927 61.536419 137.63867 59.261719 C 136.20017 58.526489 135.45713 58.164055 134.89062 58.265625 z M 168.34766 112.2207 C 168.1504 115.58633 166.8967 117.77598 162.78711 122.2793 C 160.083 125.24245 158.99383 127.4785 159.4668 129.64258 C 159.79969 128.06018 160.90053 126.3466 162.78711 124.2793 C 167.31093 119.32206 168.38867 117.18637 168.38867 113.17773 C 168.38867 112.86273 168.37393 112.54334 168.34766 112.2207 z"/>
 <path style="fill:#040c15;opacity:0.2" d="M 150.57422 83.349609 C 150.45581 83.483809 149.67827 96.725406 148.8457 112.77539 C 146.22409 163.31281 145.71833 166.34693 138.58008 174.31445 C 134.79871 178.53507 126.70468 183.49028 121.42383 184.81836 C 116.0749 186.16364 106.73521 186.63756 100.02344 185.9043 C 80.53181 183.77486 67.197231 173.44585 66.542969 161.05469 C 65.785516 174.32096 79.491459 185.6612 100.02344 187.9043 C 106.73521 188.63756 116.0749 188.16364 121.42383 186.81836 C 126.70468 185.49028 134.79871 180.53507 138.58008 176.31445 C 145.71833 168.34693 146.22409 165.31281 148.8457 114.77539 C 149.67827 98.725406 150.45581 85.483809 150.57422 85.349609 C 150.69252 85.215529 153.83582 88.294787 157.55859 92.191406 C 164.42152 99.374769 167.94326 105.25499 168.34766 110.2207 C 168.36754 109.88146 168.38867 109.54479 168.38867 109.17773 C 168.38867 104.01439 164.86742 97.84149 157.55859 90.191406 C 153.83582 86.294787 150.69252 83.215529 150.57422 83.349609 z M 190.97461 108.99219 C 190.95172 109.56529 190.91232 110.14136 190.85156 110.72266 C 189.14488 127.05141 170.71508 140.32058 161.93555 131.54102 C 160.57238 130.17786 159.74648 128.92228 159.4668 127.64258 C 159.04039 129.66951 159.87543 131.48092 161.93555 133.54102 C 170.71508 142.32058 189.14488 129.05141 190.85156 112.72266 C 190.98359 111.45951 191.02163 110.21711 190.97461 108.99219 z"/>
</svg>
